packages/ui-solid/icons/actions_24.svg

<svg width="24" height="24" viewBox="0 0 24 24" fill="none" xmlns="http://www.w3.org/2000/svg">
<path fill-rule="evenodd" clip-rule="evenodd" d="M12.6477 3.43914C12.3163 3.43914 12.0477 3.70781 12.0477 4.03923V4.36254H13.2478V4.03923C13.2478 3.70781 12.9792 3.43914 12.6477 3.43914ZM15.0478 4.36254V4.03923C15.0478 2.7137 13.9733 1.63914 12.6477 1.63914C11.3222 1.63914 10.2477 2.7137 10.2477 4.03923V4.36254H8.5528C6.17495 4.36254 4.24733 6.29017 4.24733 8.66801V17.7435C4.24733 20.1214 6.17496 22.049 8.5528 22.049H16.3141C18.6919 22.049 20.6195 20.1214 20.6195 17.7435V8.66801C20.6195 6.29016 18.6919 4.36254 16.3141 4.36254H15.0478ZM8.5528 6.16254C7.16907 6.16254 6.04733 7.28428 6.04733 8.66801V17.7435C6.04733 19.1273 7.16907 20.249 8.5528 20.249H16.3141C17.6978 20.249 18.8195 19.1273 18.8195 17.7435V8.66801C18.8195 7.28427 17.6978 6.16254 16.3141 6.16254H8.5528ZM8.10468 9.34763C8.10468 8.85057 8.50762 8.44763 9.00468 8.44763H15.8622C16.3593 8.44763 16.7622 8.85057 16.7622 9.34763C16.7622 9.84468 16.3593 10.2476 15.8622 10.2476H9.00468C8.50762 10.2476 8.10468 9.84468 8.10468 9.34763ZM8.10468 12.5249C8.10468 12.0279 8.50762 11.6249 9.00468 11.6249H15.8622C16.3593 11.6249 16.7622 12.0279 16.7622 12.5249C16.7622 13.022 16.3593 13.4249 15.8622 13.4249H9.00468C8.50762 13.4249 8.10468 13.022 8.10468 12.5249ZM9.39047 15.7022C9.39047 15.2052 9.79341 14.8022 10.2905 14.8022H14.5764C15.0735 14.8022 15.4764 15.2052 15.4764 15.7022C15.4764 16.1993 15.0735 16.6022 14.5764 16.6022H10.2905C9.79341 16.6022 9.39047 16.1993 9.39047 15.7022Z" fill="#007AFF"/>
</svg>

<svg xmlns="http://www.w3.org/2000/svg" width="24" height="24" fill="none"><path fill="currentColor" fill-rule="evenodd" d="M12.648 3.44a.6.6 0 0 0-.6.6v.323h1.2v-.324a.6.6 0 0 0-.6-.6m2.4.923v-.324a2.4 2.4 0 1 0-4.8 0v.324H8.553a4.305 4.305 0 0 0-4.306 4.305v9.076a4.305 4.305 0 0 0 4.306 4.305h7.761a4.305 4.305 0 0 0 4.305-4.305V8.668a4.305 4.305 0 0 0-4.305-4.305zm-6.495 1.8a2.505 2.505 0 0 0-2.506 2.505v9.076a2.505 2.505 0 0 0 2.506 2.505h7.761a2.505 2.505 0 0 0 2.506-2.505V8.668a2.505 2.505 0 0 0-2.506-2.505zm-.448 3.185a.9.9 0 0 1 .9-.9h6.857a.9.9 0 1 1 0 1.8H9.005a.9.9 0 0 1-.9-.9m0 3.177a.9.9 0 0 1 .9-.9h6.857a.9.9 0 0 1 0 1.8H9.005a.9.9 0 0 1-.9-.9m1.285 3.177a.9.9 0 0 1 .9-.9h4.286a.9.9 0 0 1 0 1.8H10.29a.9.9 0 0 1-.9-.9" clip-rule="evenodd"/></svg>
